themes/base/fonts/snipcart/Snipcart.dev.svg

<svg xmlns="http://www.w3.org/2000/svg"><defs><font id="Snipcart" horiz-adv-x="512"><font-face units-per-em="512" ascent="480" descent="-32"/><glyph unicode="f" d="M30.144 365.156c0 15.588 12.629 28.224 28.224 28.224h395.214c15.602 0 28.231-12.636 28.231-28.224v-28.224H30.144v28.224zm324.658-112.925c-38.99 0-70.556-31.559-70.556-70.556 0-38.99 31.595-70.556 70.556-70.556s70.592 31.595 70.592 70.556c-.036 38.997-31.602 70.556-70.592 70.556zm-77.454-9.884c-10.453 6.165-22.45 9.884-35.47 9.884-38.99 0-70.556-31.559-70.556-70.556 0-38.99 31.595-70.556 70.556-70.556 13.02 0 25.045 3.712 35.47 9.884-13.177 16.789-21.369 37.696-21.369 60.672 0 22.983 8.192 43.889 21.369 60.672zM453.582 54.62H58.368c-15.595 0-28.224 12.636-28.224 28.245v225.828h451.669V82.865c0-15.608-12.629-28.245-28.231-28.245z" data-tags="Snipcart"/><glyph unicode="e" d="M295.118 138.204c19.513 0 35.364 15.851 35.364 35.371v188.58c0 19.52-15.815 35.371-35.364 35.371l-235.712-.022c-19.513 0-35.371-15.865-35.371-35.371V173.582c0-19.52 15.858-35.371 35.371-35.371l235.712.015zM40.441 75.25a50.809 50.809 180 1 1 101.618.007 50.809 50.809 180 1 1-101.618 0zm288.739 0a50.809 50.809 180 1 1 101.647.007 50.809 50.809 180 1 1-101.647 0zM166.172 85.788h146.332s3.947 26.496 14.734 34.382c-38.315 0-177.771-.007-177.771-.007s16.705-18.659 16.705-34.375zm322.425 102.144c0 7.758-2.532 19.1-8.42 31.054-12.004 24.462-27.257 78.18-39.04 99.1-7.332 13.028-19.762 14.613-25.536 14.613h-33.074c-19.513 0-35.371-15.865-35.371-35.371V179.483c0-19.513 15.858-35.371 35.371-35.371h8.988c39.353-4.807 64.356-39.708 64.356-72.548 19.136 0 32.42 11.79 32.42 36.8v44.985c.092.868.306 1.536.306 2.546v32.037zM373.874 299.428h47.865l26.012-77.113h-73.877v77.113z" data-tags="Snipcart"/><glyph unicode="d" d="M267.947 200.839l185.614 188.907c-3.143.882-6.45 1.572-9.884 1.572l-375.801.006c-3.442 0-6.756-.683-9.948-1.572l185.628-188.907c6.513-6.669 17.891-6.669 24.391-.006zm25.422-25.863c-10.098-10.169-23.438-15.893-37.625-15.893-14.137 0-27.57 5.668-37.611 15.893L33.444 362.987c-.462-2.439-.796-4.964-.796-7.495V92.488c0-19.776 15.772-35.84 35.228-35.84h375.765c19.47 0 35.193 16.071 35.193 35.84v262.996c0 2.588-.284 5.056-.754 7.495L293.369 174.976z" data-tags="Snipcart"/><glyph unicode="c" d="M410.361 395.662l-51.484 51.449-51.442-51.449L256 447.111l-51.484-51.449-51.449 51.449-51.449-51.449-51.435 51.449V.554l51.435 51.449L153.102.554l51.442 51.449L256.028.554l51.435 51.449L358.947.554l51.442 51.449L461.831.554l-.028 275.976V447.111l-51.442-51.449zm-86.322-232.434H118.222v25.735h205.845l-.028-25.735zm69.781 51.442H118.222v25.735H393.82V214.67zm0 51.449H118.222v25.742H393.82v-25.742z" data-tags="Snipcart"/><glyph unicode="b" d="M175.068 168.1h135.26v-27.904h-135.26V168.1zm0 55.772h108.203v-27.897H175.068v27.897zm0 55.78h162.283v-27.89H175.068v27.89zM148.025 84.43h216.341v251.001h-27.015c0-15.403-12.117-27.897-27.051-27.897H202.104c-14.948 0-27.065 12.487-27.065 27.897h-27.015l.001-251.001zm270.464 334.663h-54.123v-55.78h27.072V56.54H120.974v306.773h27.065v55.78H93.952c-14.948 0-27.051-12.487-27.051-27.897V28.65C66.901 13.169 78.969.76 93.952.76h324.551c14.94 0 27.058 12.409 27.058 27.89l-.007 362.546c-.007 15.41-12.125 27.897-27.065 27.897zm-189.333-27.897h54.087v-27.883h-54.087v27.883zm-27.044-55.765h108.196c14.933 0 27.051 12.487 27.051 27.883v55.78h-54.08v27.883h-54.087v-27.883h-54.08v-55.78c-.044-15.396 12.081-27.883 27-27.883z" data-tags="Snipcart"/><glyph unicode="a" d="M196.039 121.024l59.911.235 131.3-.235c23.196 0 45.568 18.638 50.076 41.636l48.348 166.379c4.38 23.019-10.795 41.65-34.02 41.65h-32.256l-42.02-.007-121.458-.007-50.041.007-42.02.007h-32.22c-.725 0-1.372-.171-2.084-.22l-5.845 20.16c-4.487 22.99-26.859 41.628-50.084 41.628h-9.828l-32.338.056v-.078h-.064c-11.499 0-20.8-9.294-20.8-20.793 0-11.506 9.33-20.8 20.8-20.8.235 0 .462.071.697.071h41.472c2.788 0 8.085-4.295 8.775-7.844l.377-1.842.54-1.828 14.3-49.23c.064-.306.007-.569.078-.875l48.341-166.379c.647-3.3 1.756-6.485 3.1-9.579l-19.001-65.372c-3.776-19.982 7.175-36.615 25.316-40.69-1.941-3.534-3.179-7.58-3.179-11.911 0-13.817 11.186-25.003 25.003-25.003 13.81 0 25.003 11.186 25.003 25.003 0 3.932-.981 7.609-2.631 10.937l38.748.021h141.49c-1.621-3.342-2.638-7.026-2.638-10.958 0-13.817 11.193-25.003 25.003-25.003s25.003 11.186 25.003 25.003c0 3.932-1.024 7.616-2.631 10.958h5.284c.149 0 .263-.064.412-.064s.249.064.405.064h.22v.021c11.207.32 20.203 9.436 20.203 20.75 0 11.264-8.96 20.38-20.139 20.75v.071H173.895l10.226 35.214c3.861-1.128 7.858-1.903 11.918-1.903zm160.064 138.148l-6.244-33.934h-41.877v33.934h48.121zm-48.121 28.565v36.601h60.181l-6.734-36.601h-53.447zm77.191-28.565h34.695l-9.365-33.934h-31.588l6.258 33.934zm-40.611-62.486l-5.668-30.663h-30.933v30.663h36.601zm-65.152 28.566h-40.092l-6.251 33.934h46.35v-33.934zm-69.134 0H174.18l-10.567 33.934h40.412l6.251-33.934zm-17.593-59.236l-9.572 30.663h32.448l5.668-30.663h-28.544zm57.607 0l-5.668 30.663h34.816v-30.663H250.29zm117.66 0l5.668 30.663h28.985l-8.476-30.663H367.95zm69.91 158.322l-10.091-36.601H390.45l6.784 36.601h40.626zm-158.45 0v-36.601h-51.627l-6.777 36.601h58.404zm-87.438 0l6.777-36.601h-44.068l-11.42 36.601h48.711z" data-tags="Snipcart"/><glyph unicode="g" d="M255.879 446.869c-123.157 0-222.99-99.833-222.99-222.997 0-123.15 99.833-222.983 222.99-222.983 123.164 0 222.99 99.833 222.99 222.983 0 123.172-99.825 222.997-222.99 222.997zm140.11-167.673L232.263 118.784a28.083 28.083 0 0 0-19.556-7.936c-7.289 0-14.336 2.837-19.484 7.936l-79.467 77.902c-10.78 10.56-10.78 27.648 0 38.201 10.766 10.574 28.188 10.574 39.026 0l59.982-58.78 144.213 141.298c10.773 10.553 28.238 10.553 39.026 0 10.767-10.518 10.767-27.649-.014-38.209z" data-tags="Snipcart"/><glyph horiz-adv-x="256"/><glyph class="hidden" unicode="" d="M0 480L512-32H0z" horiz-adv-x="0"/></font></defs></svg>

<?xml version="1.0" standalone="no"?>
<!DOCTYPE svg PUBLIC "-//W3C//DTD SVG 1.1//EN" "http://www.w3.org/Graphics/SVG/1.1/DTD/svg11.dtd" >
<svg xmlns="http://www.w3.org/2000/svg">
<metadata>
This is a custom SVG font generated by IcoMoon.
<iconset grid="16"></iconset>
</metadata>
<defs>
<font id="Snipcart" horiz-adv-x="512" >
<font-face units-per-em="512" ascent="480" descent="-32" />
<missing-glyph horiz-adv-x="512" />
<glyph unicode="&#x66;" d="M 30.144,365.156c0,15.588, 12.629,28.224, 28.224,28.224l 395.214,0 c 15.602,0, 28.231-12.636, 28.231-28.224l0-28.224 L 30.144,336.932 L 30.144,365.156 z M 354.802,252.231
	c-38.99,0-70.556-31.559-70.556-70.556c0-38.99, 31.595-70.556, 70.556-70.556s 70.592,31.595, 70.592,70.556
	C 425.358,220.672, 393.792,252.231, 354.802,252.231z M 277.348,242.347c-10.453,6.165-22.45,9.884-35.47,9.884c-38.99,0-70.556-31.559-70.556-70.556
	c0-38.99, 31.595-70.556, 70.556-70.556c 13.020,0, 25.045,3.712, 35.47,9.884c-13.177,16.789-21.369,37.696-21.369,60.672
	C 255.979,204.658, 264.171,225.564, 277.348,242.347z M 453.582,54.62L 58.368,54.62 c-15.595,0-28.224,12.636-28.224,28.245L 30.144,308.693 l 451.669,0 l0-225.828 
	C 481.813,67.257, 469.184,54.62, 453.582,54.62z" data-tags="Snipcart" />
<glyph unicode="&#x65;" d="M 295.118,138.204c 19.513,0, 35.364,15.851, 35.364,35.371L 330.482,362.155 c0,19.52-15.815,35.371-35.364,35.371L 59.406,397.504 
		c-19.513,0-35.371-15.865-35.371-35.371l0-188.551 c0-19.52, 15.858-35.371, 35.371-35.371L 295.118,138.226 zM 40.441,75.25A50.809,50.809 180 1 1 142.059,75.257A50.809,50.809 180 1 1 40.441,75.257zM 329.18,75.25A50.809,50.809 180 1 1 430.827,75.257A50.809,50.809 180 1 1 329.18,75.257zM 166.172,85.788l 146.332,0 c0,0, 3.947,26.496, 14.734,34.382c-38.315,0-177.771-0.007-177.771-0.007S 166.172,101.504, 166.172,85.788zM 488.597,187.932c0,7.758-2.532,19.1-8.42,31.054c-12.004,24.462-27.257,78.18-39.040,99.1
		c-7.332,13.028-19.762,14.613-25.536,14.613l-33.074,0 c-19.513,0-35.371-15.865-35.371-35.371l0-117.845 c0-19.513, 15.858-35.371, 35.371-35.371l 8.988,0 
		c 39.353-4.807, 64.356-39.708, 64.356-72.548c 19.136,0, 32.42,11.79, 32.42,36.8c0,13.568,0,31.438,0,44.985
		c 0.092,0.868, 0.306,1.536, 0.306,2.546L 488.597,187.932 z M 373.874,299.428l 47.865,0 l 26.012-77.113l-73.877,0 L 373.874,299.428 z" data-tags="Snipcart" />
<glyph unicode="&#x64;" d="M 267.947,200.839l 185.614,188.907c-3.143,0.882-6.45,1.572-9.884,1.572L 67.876,391.324 c-3.442,0-6.756-0.683-9.948-1.572l 185.628-188.907
			C 250.069,194.176, 261.447,194.176, 267.947,200.839zM 293.369,174.976c-10.098-10.169-23.438-15.893-37.625-15.893c-14.137,0-27.57,5.668-37.611,15.893L 33.444,362.987
			c-0.462-2.439-0.796-4.964-0.796-7.495l0-263.004 c0-19.776, 15.772-35.84, 35.228-35.84l 375.765,0 c 19.47,0, 35.193,16.071, 35.193,35.84L 478.834,355.484 
			c0,2.588-0.284,5.056-0.754,7.495L 293.369,174.976z" data-tags="Snipcart" />
<glyph unicode="&#x63;" d="M 410.361,395.662l-51.484,51.449l-51.442-51.449l-51.435,51.449l-51.484-51.449l-51.449,51.449l-51.449-51.449l-51.435,51.449l0-129.515 l0-23.602 
	l0-293.44 l 51.435,51.449l 51.484-51.449l 51.442,51.449l 51.484-51.449l 51.435,51.449l 51.484-51.449l 51.442,51.449l 51.442-51.449L 461.803,276.53 l0,41.031 L 461.803,447.111 
	L 410.361,395.662z M 324.039,163.228L 118.222,163.228 l0,25.735 l 205.845,0 L 324.039,163.228 z M 393.82,214.67L 118.222,214.67 l0,25.735 l 275.598,0 L 393.82,214.67 z M 393.82,266.119L 118.222,266.119 
	l0,25.742 l 275.598,0 L 393.82,266.119 z" data-tags="Snipcart" />
<glyph unicode="&#x62;" d="M 175.068,168.1l 135.26,0 l0-27.904 L 175.068,140.196 L 175.068,168.1 z M 175.068,223.872l 108.203,0 l0-27.897 l-108.203,0 L 175.068,223.872 z M 175.068,279.652l 162.283,0 l0-27.89 L 175.068,251.762 
	L 175.068,279.652 z M 148.025,84.43l 216.341,0 L 364.366,335.431 l-27.015,0 c0-15.403-12.117-27.897-27.051-27.897l-108.196,0 c-14.948,0-27.065,12.487-27.065,27.897l-27.015,0 L 148.025,84.43 
	z M 418.489,419.093l-54.123,0 l0-55.78 l 27.072,0 l0-306.773 L 120.974,56.54 l0,306.773 l 27.065,0 l0,55.78 l-54.087,0 c-14.948,0-27.051-12.487-27.051-27.897l0-362.546 
	c0-15.481, 12.068-27.89, 27.051-27.89l 324.551,0 c 14.94,0, 27.058,12.409, 27.058,27.89L 445.554,391.196 C 445.547,406.606, 433.429,419.093, 418.489,419.093z
	 M 229.156,391.196l 54.087,0 l0-27.883 l-54.087,0 L 229.156,391.196 z M 202.112,335.431l 108.196,0 c 14.933,0, 27.051,12.487, 27.051,27.883l0,55.78 l-54.080,0 l0,27.883 l-54.087,0 
	l0-27.883 l-54.080,0 l0-55.78 C 175.068,347.918, 187.193,335.431, 202.112,335.431z" data-tags="Snipcart" />
<glyph unicode="&#x61;" d="M 196.039,121.024l 59.911,0.235l 131.3-0.235c 23.196,0, 45.568,18.638, 50.076,41.636l 48.348,166.379c 4.38,23.019-10.795,41.65-34.020,41.65
	l-32.256,0 l-42.020-0.007l-121.458-0.007l-50.041,0.007l-42.020,0.007l-32.22,0 c-0.725,0-1.372-0.171-2.084-0.22l-5.845,20.16
	c-4.487,22.99-26.859,41.628-50.084,41.628l-9.828,0 L 31.46,432.313 l0-0.078 c-0.007,0-0.057,0-0.064,0c-11.499,0-20.8-9.294-20.8-20.793
	c0-11.506, 9.33-20.8, 20.8-20.8c 0.235,0, 0.462,0.071, 0.697,0.071l 41.472,0 c 2.788,0, 8.085-4.295, 8.775-7.844l 0.377-1.842l 0.54-1.828
	l 14.3-49.23c 0.064-0.306, 0.007-0.569, 0.078-0.875l 48.341-166.379c 0.647-3.3, 1.756-6.485, 3.1-9.579l-19.001-65.372
	c-3.776-19.982, 7.175-36.615, 25.316-40.69c-1.941-3.534-3.179-7.58-3.179-11.911c0-13.817, 11.186-25.003, 25.003-25.003
	c 13.81,0, 25.003,11.186, 25.003,25.003c0,3.932-0.981,7.609-2.631,10.937l 38.748,0.021l 141.49,0 c-1.621-3.342-2.638-7.026-2.638-10.958
	c0-13.817, 11.193-25.003, 25.003-25.003s 25.003,11.186, 25.003,25.003c0,3.932-1.024,7.616-2.631,10.958l 5.284,0 c 0.149,0, 0.263-0.064, 0.412-0.064
	s 0.249,0.064, 0.405,0.064l 0.22,0 l0,0.021 c 11.207,0.32, 20.203,9.436, 20.203,20.75c0,11.264-8.96,20.38-20.139,20.75l0,0.071 l-257.052,0 
	l 10.226,35.214C 187.982,121.799, 191.979,121.024, 196.039,121.024z M 356.103,259.172l-6.244-33.934l-41.877,0 l0,33.934 L 356.103,259.172 z M 307.982,287.737l0,36.601 
	l 60.181,0 l-6.734-36.601L 307.982,287.737 z M 385.173,259.172l 34.695,0 l-9.365-33.934l-31.588,0 L 385.173,259.172z M 344.562,196.686l-5.668-30.663l-30.933,0 l0,30.663 
	L 344.562,196.686 z M 279.41,225.252l-40.092,0 l-6.251,33.934l 46.35,0 L 279.417,225.252 z M 210.276,225.252l-36.096,0 l-10.567,33.934l 40.412,0 L 210.276,225.252z M 192.683,166.016
	l-9.572,30.663l 32.448,0 l 5.668-30.663L 192.683,166.016 z M 250.29,166.016l-5.668,30.663l 34.816,0 l0-30.663 L 250.29,166.016 z M 367.95,166.016l 5.668,30.663l 28.985,0 
	l-8.476-30.663L 367.95,166.016 z M 437.86,324.338l-10.091-36.601l-37.319,0 l 6.784,36.601L 437.86,324.338 z M 279.41,324.338l0-36.601 L 227.783,287.737 l-6.777,36.601L 279.41,324.338 z
	 M 191.972,324.338l 6.777-36.601L 154.681,287.737 l-11.42,36.601L 191.972,324.338 z" data-tags="Snipcart" />
<glyph unicode="&#x67;" d="M 255.879,446.869c-123.157,0-222.99-99.833-222.99-222.997c0-123.15, 99.833-222.983, 222.99-222.983
	c 123.164,0, 222.99,99.833, 222.99,222.983C 478.869,347.044, 379.044,446.869, 255.879,446.869z M 395.989,279.196L 232.263,118.784
	c-5.22-5.077-12.252-7.936-19.556-7.936c-7.289,0-14.336,2.837-19.484,7.936l-79.467,77.902c-10.78,10.56-10.78,27.648,0,38.201
	c 10.766,10.574, 28.188,10.574, 39.026,0l 59.982-58.78l 144.213,141.298c 10.773,10.553, 28.238,10.553, 39.026,0
	C 406.77,306.887, 406.77,289.756, 395.989,279.196z" data-tags="Snipcart" />
<glyph unicode="&#x20;" horiz-adv-x="256" />
<glyph class="hidden" unicode="&#xf000;" d="M0,480L 512 -32L0 -32 z" horiz-adv-x="0" />
</font></defs></svg>
